assets/newrelic/mono.svg

<svg viewBox="0 0 24 24" xmlns="http://www.w3.org/2000/svg"><path d="m8.0015 14.3091v7.384l3.9993 2.3069v-11.9992l-10.393-6.0012v4.6167zm3.9993-14.3091-9.1776 5.2976 3.9977 2.3084 5.1799-2.9893 6.3936 3.6913v7.384l-5.1783 2.9908v4.6167l9.176-5.2991v-12.0008z"/></svg>

<svg xmlns="http://www.w3.org/2000/svg" viewBox="0 0 24 24"><path d="M8.002 14.31v7.383L12 24V12L1.608 6v4.616zM12 0 2.823 5.298l3.998 2.308L12 4.616l6.393 3.692v7.384l-5.178 2.99V23.3l9.176-5.3V6z"/></svg>
